Numix-GalliumOS/24/panel/copy-sync2.svg

<?xml version="1.0" encoding="UTF-8" standalone="no"?>
<!-- Generator: Adobe Illustrator 15.1.0, SVG Export Plug-In . SVG Version: 6.00 Build 0)  -->

<svg
   xmlns:dc="http://purl.org/dc/elements/1.1/"
   xmlns:cc="http://creativecommons.org/ns#"
   xmlns:rdf="http://www.w3.org/1999/02/22-rdf-syntax-ns#"
   xmlns:svg="http://www.w3.org/2000/svg"
   xmlns="http://www.w3.org/2000/svg"
   xmlns:sodipodi="http://sodipodi.sourceforge.net/DTD/sodipodi-0.dtd"
   xmlns:inkscape="http://www.inkscape.org/namespaces/inkscape"
   version="1.1"
   id="Layer_1"
   x="0px"
   y="0px"
   width="24"
   height="24"
   viewBox="0 0 24 24"
   enable-background="new 0 0 24 24"
   xml:space="preserve"
   inkscape:version="0.91 r"
   sodipodi:docname="copy-sync2.svg"><metadata
     id="metadata29"><rdf:RDF><cc:Work
         rdf:about=""><dc:format>image/svg+xml</dc:format><dc:type
           rdf:resource="http://purl.org/dc/dcmitype/StillImage" /><dc:title /></cc:Work></rdf:RDF></metadata><defs
     id="defs27" /><sodipodi:namedview
     pagecolor="#ffffff"
     bordercolor="#666666"
     borderopacity="1"
     objecttolerance="10"
     gridtolerance="10"
     guidetolerance="10"
     inkscape:pageopacity="0"
     inkscape:pageshadow="2"
     inkscape:window-width="1366"
     inkscape:window-height="747"
     id="namedview25"
     showgrid="false"
     inkscape:zoom="6.9532168"
     inkscape:cx="14.231292"
     inkscape:cy="-8.2296006"
     inkscape:window-x="0"
     inkscape:window-y="21"
     inkscape:window-maximized="1"
     inkscape:current-layer="Layer_1" /><polygon
     points="18.162,10.28 16.033,8.347 22.172,0.866 22.76,1.286 "
     id="polygon17"
     style="opacity:0.4;fill:#ececec;fill-opacity:1"
     transform="matrix(0.88289963,0,0,0.88294066,1.4052044,1.7354204)" /><path
     style="fill:#ececec;fill-opacity:1"
     d="M 6.0625,10.81205 2.5,11.999606 2.5,10.81205 6.0625,7.7208751 7.2491171,8.436057 9.303,13.490047 l -2.053,2.072 z"
     id="polygon19"
     inkscape:connector-curvature="0"
     sodipodi:nodetypes="cccccccc" /><path
     style="opacity:0.4;fill:#ececec;fill-opacity:1"
     d="M 6.0625,7.7207501 2.5,10.812547 l 0,1.1875 3.5625,-1.1875 1.1875,4.75 1.1875,4.75 2.919922,-1.767578 0,-0.002 9.783203,2.957031 0.326172,0 L 21.5,21.230516 17.9375,13.187547 16.75,12.000047 10.671875,16.857469 9.303,13.490047 7.25,8.4355939 Z"
     id="polyline21"
     inkscape:connector-curvature="0"
     sodipodi:nodetypes="ccccccccccccccccc" /><path
     d="M 11.504693,14.373833 9.6497212,10.81205 12,9.624495 c 1.186617,0 3.560734,1.187555 3.560734,1.187555 l -4.056041,3.561783 z"
     id="path23"
     inkscape:connector-curvature="0"
     style="opacity:0.4;fill:#ececec;fill-opacity:1" /></svg>

<!-- Generator: Adobe Illustrator 15.1.0, SVG Export Plug-In . SVG Version: 6.00 Build 0)  -->
<svg xmlns="http://www.w3.org/2000/svg" viewBox="0 0 24 24" style="enable-background:new 0 0 24 24">
 <polygon points="18.162,10.28 16.033,8.347 22.172,0.866 22.76,1.286 " transform="matrix(0.88289963,0,0,0.88294066,1.4052044,1.7354204)" style="fill:#ececec;opacity:0.4;fill-opacity:1"/>
 <path d="m 6.06 10.812 -3.563 1.188 0 -1.188 3.563 -3.091 1.187 0.715 2.054 5.05 l -2.053 2.072 z" style="fill:#ececec;fill-opacity:1"/>
 <path d="m 6.06 7.721 -3.563 3.092 l 0 1.188 3.563 -1.188 1.188 4.75 1.188 4.75 2.92 -1.768 0 -0.002 9.783 2.957 0.326 0 l 0.033 -0.269 -3.563 -8.04 -1.188 -1.188 -6.078 4.857 -1.369 -3.367 -2.053 -5.05" style="fill:#ececec;opacity:0.4;fill-opacity:1"/>
 <path d="m 11.505 14.374 -1.855 -3.562 2.35 -1.188 c 1.187 0 3.561 1.188 3.561 1.188 l -4.056 3.562 z" style="fill:#ececec;opacity:0.4;fill-opacity:1"/>
</svg>
